static/images/expandHeji.svg

<svg width="30" height="30" viewBox="0 0 30 30" fill="none" xmlns="http://www.w3.org/2000/svg">
<path d="M15.0045 10C14.6394 10 14.3367 10.1289 14.0518 10.4126L7.34724 17.0315C7.11575 17.2464 7 17.5215 7 17.8395C7 18.4842 7.53422 19 8.202 19C8.54034 19 8.83417 18.8711 9.07457 18.639L15.0134 12.7593L20.9343 18.639C21.1747 18.8711 21.4775 19 21.8069 19C22.4747 19 23 18.4842 23 17.8395C23 17.5129 22.8932 17.2464 22.6617 17.0315L15.9572 10.4126C15.6722 10.1289 15.3695 10.0086 15.0045 10Z" fill="white"/>
</svg>

<svg xmlns="http://www.w3.org/2000/svg" width="30" height="30" fill="none"><path fill="#fff" d="M15.005 10c-.366 0-.668.129-.953.413l-6.705 6.619c-.231.214-.347.49-.347.808 0 .644.534 1.16 1.202 1.16.338 0 .632-.129.873-.361l5.938-5.88 5.921 5.88c.24.232.543.361.873.361.668 0 1.193-.516 1.193-1.16 0-.327-.107-.594-.338-.808l-6.705-6.62a1.317 1.317 0 0 0-.953-.412Z"/></svg>
